!!!!SEGMENT: pl-sa--305-a-vii-65--006_lechleitner-ferdinand-simon--vespere-credidi.krn
!!!id: 17xx:399
!!!COM: Lechleitner, Ferdinand Simon
!!!COM-rism: pe30001903
!!!CDT:
!!!CNT:
!!!OTL: Vespere – Credidi
!!!PDT:
!!!SMS-siglum: PL-SA
!!!SMS-shelfmark: 305/A VII 65
!!!NIFC-rismID: 1001077319
!!!URL-scan: http://bc.bdsandomierz.pl/dlibra/publication/1610/edition/1578/content
!!!ONB-nifc: UWAGA: części Vespere: Domine ad adiuvandum, Dixit dominus, Confitebor, Beatus vir, Laudate pueri, Credidi, Magnificat
**kern	**fba	**kern	**kern	**kern	**text	**kern	**text	**kern	**text	**kern	**text	**kern	**kern
*part9	*	*part8	*part7	*part6	*part6	*part5	*part5	*part4	*part4	*part3	*part3	*part2	*part1
*staff9	*	*staff8	*staff7	*staff6	*staff6	*staff5	*staff5	*staff4	*staff4	*staff3	*staff3	*staff2	*staff1
*I"Organo	*	*I"Violino Secundo	*I"Violino Primo	*I"Baſso	*	*I"Tenore	*	*I"Alto	*	*I"Canto	*	*I"Clarino 2do	*I"Clarino 1mo
*I'org	*	*I'vl II	*I'vl I	*I'B	*	*I'T	*	*I'A	*	*I'C	*	*I'Clno II	*I'clno I
*clefF4	*	*clefG2	*clefG2	*clefF4	*	*clefC4	*	*clefC3	*	*clefC1	*	*clefG2	*clefG2
*k[]	*	*k[]	*k[]	*k[]	*	*k[]	*	*k[]	*	*k[]	*	*k[]	*k[]
*M2/2	*	*M2/2	*M2/2	*M2/2	*	*M2/2	*	*M2/2	*	*M2/2	*	*M2/2	*M2/2
*met(C.)	*	*met(c|)	*met(c|)	*met(C.)	*	*met(C.)	*	*met(C.)	*	*met(C.)	*	*met(c|)	*met(c|)
=1	=1	=1	=1	=1	=1	=1	=1	=1	=1	=1	=1	=1	=1
!LO:TX:a:i:B:t=Largo	!	!LO:TX:a:i:B:t=Largo	!LO:TX:a:t=2	!	!	!	!	!	!	!	!	!LO:TX:a:i:B:t=Credidi\nTacet	!LO:TX:a:i:B:t=Credidi\nTacet
!LO:TX:i:b:B:t=Credidi	!	!LO:TX:i:b:B:t=Credidi	!LO:TX:i:b:B:t=Credidi	!	!	!	!	!	!	!	!	!	!
!LO:TX:a:t=P:problem:ósemki i ćwierćnuty skierowane w dół mają kaudy z prawej strony	!	!LO:TX:a:t=P:problem:ósemki i ćwierćnuty skierowane w dół mają kaudy z prawej strony	!LO:TX:a:t=P:problem:ósemki i ćwierćnuty skierowane w dół mają kaudy z prawej strony	!LO:TX:a:t=P:problem:ósemki i ćwierćnuty skierowane w dół mają kaudy z prawej strony	!	!LO:TX:a:t=P:problem:ósemki i ćwierćnuty skierowane w dół mają kaudy z prawej strony	!	!LO:TX:a:t=P:problem:ósemki i ćwierćnuty skierowane w dół mają kaudy z prawej strony	!	!LO:TX:a:t=P:problem:ósemki i ćwierćnuty skierowane w dół mają kaudy z prawej strony	!	!	!
!	!	!	!	!	!	!LO:TX:i:b:B:t=Credidi	!	!	!	!	!	!	!
8C/L	.	0r	0r	0r	.	0r	.	0r	.	8cc\	Cre-	1ryy	1ryy
8D/	.	.	.	.	.	.	.	.	.	16b\	-di-	.	.
.	.	.	.	.	.	.	.	.	.	16cc\	-di	.	.
8E/	X 6	.	.	.	.	.	.	.	.	8e/	pro-	.	.
8C/J	X 6	.	.	.	.	.	.	.	.	8cc\	-pter	.	.
8BB/L	X 6	.	.	.	.	.	.	.	.	8dd\	quod	.	.
16C/L	.	.	.	.	.	.	.	.	.	8ee\	lo-	.	.
16BB/JJ	.	.	.	.	.	.	.	.	.	.	.	.	.
8AA/L	X 6	.	.	.	.	.	.	.	.	8ff\	-cu-	.	.
8BB/J	X 6	.	.	.	.	.	.	.	.	16gg\LL	-tus,	.	.
.	.	.	.	.	.	.	.	.	.	16dd\JJ	.	.	.
=2	=2	=2	=2	=2	=2	=2	=2	=2	=2	=2	=2	=2	=2
4C/	.	.	.	.	.	.	.	.	.	8ee\	sum',	1ryy	1ryy
.	.	.	.	.	.	.	.	.	.	16gg\	e-	.	.
.	.	.	.	.	.	.	.	.	.	16ff\	-go,	.	.
8r	.	.	.	.	.	.	.	.	.	16ee\LL	au-	.	.
.	.	.	.	.	.	.	.	.	.	16dd\JJ	.	.	.
!LO:TX:a:t=P:problem:chorągiewka 8 z lewej strony	!	!	!	!	!	!	!	!	!	!	!	!	!
8E\	6 5-	.	.	.	.	.	.	.	.	16cc\	-tem,	.	.
.	.	.	.	.	.	.	.	.	.	16b-X\	hu-	.	.
8F\L	.	.	.	.	.	.	.	.	.	8a\	-mi-	.	.
8E\	.	.	.	.	.	.	.	.	.	8g/	-li-	.	.
!	!	!	!	!	!	!	!	!	!	!LO:LB:g=original	!	!	!
8D\	X 6	.	.	.	.	.	.	.	.	16f/LL	-a-	.	.
.	.	.	.	.	.	.	.	.	.	16g/JJ	.	.	.
!	!	!	!	!	!	!	!	!	!	!LO:N:vis=8	!	!	!
8F\J	X 5	.	.	.	.	.	.	.	.	16f/	-tus,	.	.
!	!	!	!	!	!	!	!	!	!	!LO:N:vis=8	!	!	!
.	.	.	.	.	.	.	.	.	.	16e/	sum,	.	.
=3	=3	=3	=3	=3	=3	=3	=3	=3	=3	=3	=3	=3	=3
8G\L	6 4	4r	4r	4r	.	1r	.	2r	.	4.e/	ni-	1ryy	1ryy
8F\J	.	.	.	.	.	.	.	.	.	.	.	.	.
!LO:TX:a:t=P:problem:mixed beam	!	!	!	!	!	!	!	!	!	!	!	!	!
8G\L	5 3	8dd\L	8gg\L	8G\	e-	.	.	.	.	.	.	.	.
8GG/J	.	8dd\J	8gg\J	8G\	-go	.	.	.	.	16d/LL	.	.	.
.	.	.	.	.	.	.	.	.	.	16c/JJ	.	.	.
8C/L	.	8ee\L	8gg\L	8C/	di-	.	.	4r	.	4c/	-mis,	.	.
8D/	.	16dd\L	16ff\L	8D/	-xi	.	.	.	.	.	.	.	.
.	.	16ee\JJ	16gg\JJ	.	.	.	.	.	.	.	.	.	.
8E/	.	8cc\L	8ee\L	8E/	in	.	.	8g\	Quid	4r	.	.	.
8C/J	.	8ee\J	8gg\J	8C/	ex-	.	.	8g\	re-	.	.	.	.
!	!	!	!	!LO:LB:g=original	!	!	!	!	!	!	!	!	!
=4	=4	=4	=4	=4	=4	=4	=4	=4	=4	=4	=4	=4	=4
!	!	!	!	!	!LO:SIC:s=-ces-	!	!	!	!	!	!	!	!
8F\L	.	8ff\L	8aa\L	8F\	-cel-	8c\	Ca-	8a\	-tri-	4r	.	1ryy	1ryy
8E\	X 6	8cc\J	16gg\L	8E\	-su	16c\	-li-	16g\	-bu-	.	.	.	.
.	.	.	16aa\JJ	.	.	16c\	-cem	16a\	-am,	.	.	.	.
8F\	.	8cc\L	8.ff\L	8F\	me-	8c\	Sa-	8.f\	do-	8cc\	vo-	.	.
8D\J	X 6	8dd\J	.	8D\	-o'	8B\	-lu-	.	.	8dd\	-ta	.	.
.	.	.	16ff\Jk	.	.	.	.	16e\	-mi-	.	.	.	.
!	!	!	!	!	!	!LO:LB:g=original	!	!	!	!	!	!	!
8E\L	X 6	8cc\L	8.gg\L	8E\	om-	8c\	-ta-	8e\	-no',	8cc\	me-	.	.
!	!	!	!	!	!	!	!LO:SIC:s=-ris	!	!	!	!	!	!
8D\	X 6	8dd\J	.	8D\	-nis	16B\	-ri	8f\	pro	8dd\	-a	.	.
!	!	!	!LO:N:vis=8	!	!	!	!	!	!	!	!	!	!
.	.	.	16ff\Jk	.	.	16B\	ac-	.	.	.	.	.	.
8E\	X 6	16cc\LL	16ee\LL	8E\	ho-	8.c\	-ci-	8g\	om-	16cc\LL	do-	.	.
.	.	16dd\	16ff\	.	.	.	.	.	.	16dd\JJ	.	.	.
8C\J	.	16ee\	16gg\	8C/	-mo,	.	.	16f\	-ni-	16ee\	-mi-	.	.
.	.	16ff\JJ	16aa\JJ	.	.	16c\	-pi-	16e\	-bus,	16ff\	-no,	.	.
!LO:LB:g=original	!	!	!	!	!	!	!	!	!	!	!	!	!
=5	=5	=5	=5	=5	=5	=5	=5	=5	=5	=5	=5	=5	=5
!	!	!	!	!	!	!	!	!	!LO:SIC:s=quae	!	!	!	!
8G\L	.	16dd\LL	16gg\LL	8G\	men-	8B\	-am,	8d\	que	8gg\	red-	1ryy	1ryy
.	.	16b\	16dd\	.	.	.	.	.	.	.	.	.	.
8A\	.	16b\	16dd\	8G\	-dax,	(>16B\LL	et	8g\	re-	8dd\	-dam	.	.
.	.	16b\JJ	16dd\JJ	.	.	16c\JJ)	.	.	.	.	.	.	.
8B\	.	16b\LL	16dd\LL	8r	.	8d\	no-	8g\	-tri-	8cc\	co-	.	.
.	.	16b\	16dd\	.	.	.	.	.	.	.	.	.	.
8G\J	.	16dd\	16gg\	8G\	o	8B\	-men	16g\	-bu-	8dd\	-ram	.	.
.	.	16b\JJ	16dd\JJ	.	.	.	.	16g\	-it	.	.	.	.
!	!	!LO:TX:a:t=P:problem:mixed beam	!	!	!	!	!	!	!	!	!	!	!
!	!	!	!	!	!	!	!	!LO:LB:g=original	!	!LO:PB:g=original	!	!	!
8c\L	.	8g/L	8ee\L	8c\	do-	8c\	do-	8g\	mi-	8ee\	om-	.	.
8B\	X 6	8dd\J	8gg\	16B\	-mi-	16d\	-mi-	8g\	-hi	8dd\	-ni	.	.
!	!	!	!	!	!	!LO:SIC:t=lub 16d	!	!	!	!	!	!	!
.	.	.	.	16B\	-ne	16c\	-ni,	.	.	.	.	.	.
8A\	X 6|	8cc\L	8ff#X\	8A\	qui-	8A/	in-	4r	.	8cc\	po-	.	.
8G\J	.	16dd\L	8gg\J	8G\	-a	(>16B\LL	-vo-	.	.	16cc\	-pu-	.	.
.	.	16ee\JJ	.	.	.	16c\JJ)	.	.	.	16b\	-li	.	.
=6	=6	=6	=6	=6	=6	=6	=6	=6	=6	=6	=6	=6	=6
!LO:TX:a:t=P:problem:mixed beam	!	!	!	!	!	!	!	!	!	!	!	!	!
8D\L	X #	8ff#X\L	8aa\L	8d\	e-	8d\	-ca-	8f#X\	di-	16a\LL	e-	1ryy	1ryy
.	.	.	.	.	.	.	.	.	.	16b\	.	.	.
!	!	!	!	!	!	!LO:TX:a:t=P:problem:niejednoznaczny zapis wysokości (rozmazana główka)	!	!	!	!	!	!	!
8G\	X n	8dd\	8bb\	8G\	-go	8d\	-bo	8g\	-ru-	16g\	.	.	.
.	.	.	.	.	.	.	.	.	.	16a\JJ	.	.	.
8D\	X 4	8ee\	8gg\	8.D/	ser-	4r	.	8.g\	-pi-	8b\L	.	.	.
8DD/J	X #	8ff#X\J	8aa\J	.	.	.	.	.	.	16a\L	.	.	.
!	!	!	!	!LO:PB:g=original	!	!	!	!	!	!	!	!	!
.	.	.	.	16D/	-vus	.	.	16f#X\	-ſti'	16g\JJ	.	.	.
!LO:TX:a:t=P:problem:mixed beam	!	!	!	!	!	!	!	!	!	!	!	!	!
8GG/L	.	16gg\LL	16bb\LL	8G\	tu-	8B\	vo-	8g\	do-	8g/	-jus',	.	.
.	.	16dd\	16gg\	.	.	.	.	.	.	.	.	.	.
8G\	.	16dd\	16gg\	8G\	-us	8B\	-ta	16g\	-mi-	16dd\	pre-	.	.
.	.	16dd\JJ	16gg\JJ	.	.	.	.	16g\	-ne',	16dd\	-ti-	.	.
!	!	!	!	!	!	!LO:LB:g=original	!	!	!	!	!	!	!
8B\	X 6	16b\LL	16dd\LL	8r	.	8d\	me-	8d\	vin-	16dd\	-o-	.	.
.	.	16b\	16dd\	.	.	.	.	.	.	16b\	-sa'	.	.
8G\J	.	16dd\	16gg\	16G\	e-	8B\	-a	16g\	-cu-	16cc\	in	.	.
.	.	16dd\JJ	16gg\JJ	16G\	-go	.	.	16f#\	-la	16dd\	con-	.	.
!	!	!LO:LB:g=original	!LO:LB:g=original	!	!	!	!	!	!	!	!	!	!
=7	=7	=7	=7	=7	=7	=7	=7	=7	=7	=7	=7	=7	=7
!LO:TX:a:t=P:problem:mixed beam	!	!	!	!	!	!	!	!	!	!	!	!	!
8C/L	.	8cc\L	8ee\L	8c\	ser-	8c\	do-	8g\	me-	8ee\	-ſpe-	1ryy	1ryy
8G\	.	8dd\J	16gg\L	8G\	-vus	16B\	-mi-	16g\	-a	(>16dd\	-ctu'	.	.
.	.	.	16gg\JJ	.	.	16B\	-no'	16g\	ti-	16ee\)	.	.	.
8A\	X 6	8cc\L	8ff\L	8A\	tu-	16c\	red-	8f\	-bi	8ff\	do-	.	.
.	.	.	.	.	.	16c\	-dam'	.	.	.	.	.	.
8G\J	X 6	16dd\L	8gg\J	16G\	-us	16B\	in	8g\	Sa-	16ee\	-mi-	.	.
.	.	16ee\JJ	.	16G\	et	16B\	con-	.	.	16ee\	-ni	.	.
!	!	!	!	!	!	!	!	!	!	!LO:LB:g=original	!	!	!
8F\L	X 6	8ff\L	8aa\L	8F\	fi-	8A/	-spe-	8a\	-cri-	8dd\	mors,	.	.
8E\	X 6	8cc\	8gg\	8E\	-li-	8c\	-ctu	8g\	-fi-	8cc\	San-	.	.
8D\	X 6	8ff\	8ff\	8D/	-us	8d\	Po-	8f\	-ca-	8b\	-cto-	.	.
!	!	!	!	!	!	!	!	!LO:LB:g=original	!	!	!	!	!
8C\J	.	8ee\J	8gg\J	8C/	an-	(>16e\LL	.	8g\	-bo	16cc\LL	-rum,	.	.
.	.	.	.	.	.	16d\JJ)	.	.	.	16dd\JJ	.	.	.
=8	=8	=8	=8	=8	=8	=8	=8	=8	=8	=8	=8	=8	=8
!LO:TX:a:t=P:problem:mixed beam	!	!	!	!	!	!LO:TX:a:t=P:problem:łuk nad nutą	!	!	!	!	!	!	!
8G\L	6 4	8ee\L	8gg\L	8G\	-cil-	8c\	.	8g\	ho-	4.ee\	e-	1ryy	1ryy
!	!	!	!	!	!LO:SIC:s=-lae	!	!	!	!	!	!	!	!
8F\	.	8ff\J	8aa\	8F\	-le	16c\	-pu-	16a\	-ſti-	.	.	.	.
.	.	.	.	.	.	16c\	-li	16a\	-am	.	.	.	.
!	!	!	!	!LO:TX:a:t=P:problem:mixed beam	!	!	!	!	!	!	!	!	!
8G\	5 3	8.dd\L	8gg\	(>8G\L	tu-	4B\	e-	(>8d\L	lau-	.	.	.	.
8GG/J	.	.	8gg\J	8GG/J)	.	.	.	8g\J)	.	16dd\LL	.	.	.
.	.	16dd\Jk	.	.	.	.	.	.	.	16cc\JJ	.	.	.
!LO:TX:a:t=P:problem:mixed beam	!	!	!	!	!	!	!	!	!	!	!	!	!
8C/L	.	8ee\L	8gg\L	8C/	-ae	8c\	-jus	8g\	-dis',	8cc\	-ius'	.	.
!	!	!	!	!	!	!	!	!	!	!LO:TX:a:t=P:problem:nieczytelny krzyżyk	!	!	!
!	!	!	!	!LO:LB:g=original	!	!	!	!	!	!	!	!	!
8E\	.	8ee\J	8gg#X\J	8E\	in	8B\	in	8e\	et	8g#X/	in	.	.
!	!	!	!	!	!	!LO:LB:g=original	!	!	!	!	!	!	!
8A\	X n	16cc\LL	16aa\LL	8A\	a-	8c\	a-	8e\	no-	8a\	a-	.	.
.	.	16ee\	16ee\	.	.	.	.	.	.	.	.	.	.
8G#X\J	.	16ee\	16ee\	16G#X\	-tri-	16B\	-tri-	8e\	-men	16b\	-tri-	.	.
.	.	16ee\JJ	16ee\JJ	16G#\	-is	16B\	-is	.	.	16b\	-is	.	.
=9	=9	=9	=9	=9	=9	=9	=9	=9	=9	=9	=9	=9	=9
!LO:TX:a:t=P:problem:mixed beam	!	!	!	!	!	!	!	!	!	!	!	!	!
8A\L	X n	8cc\L	8aa\L	8A\	do-	8A/	do-	8e\	do-	8cc\	do-	1ryy	1ryy
8E\	X #	8ee\J	8gg#X\J	8E\	-mus	8B\	-mus	16e\	-mi-	8b\	-mus	.	.
.	.	.	.	.	.	.	.	16e\	-ni	.	.	.	.
8C/	X 6	16ee\LL	16aa\LL	8C/	do-	8.c\	do-	8e\	in	8.a\	do-	.	.
.	.	16ee\	16aa\	.	.	.	.	.	.	.	.	.	.
8AA/J	.	16ee\	16bb\	8AA/	-mi-	.	.	8e\	vo-	.	.	.	.
.	.	16ee\JJ	16ccc\JJ	.	.	16c\	-mi-	.	.	16a\	-mi-	.	.
8E\L	X #	8ee\L	8bb\L	8E\	-ni	8B\	-ni,	8e\	-ca-	8g#X/	-ni',	.	.
8C\	.	8gg\	8ccc\J	8C/	in	8e\	in	8e\	-bo	8cc\	in	.	.
8D\	X 6	8ff\	8bb\L	8D/	me-	8d\	me-	4r	.	8b\	me-	.	.
8E\J	X 6	8gg\J	16ccc\L	16E\	-di-	16c\	-di-	.	.	16cc\	-di-	.	.
.	.	.	16bb\JJ	16E\	-o	16c\	-o	.	.	16b\	-o	.	.
!	!	!	!	!	!	!	!	!	!	!LO:LB:g=original	!	!	!
=10	=10	=10	=10	=10	=10	=10	=10	=10	=10	=10	=10	=10	=10
!LO:TX:a:t=P:problem:mixed beam	!	!	!	!	!	!	!	!	!	!	!	!	!
8F\L	6 5	16cc\LL	16aa\LL	8F\	tu-	8c\	tu-	8r	.	8a\	tu-	1ryy	1ryy
.	.	16ff\	16ccc\	.	.	.	.	.	.	.	.	.	.
8D\	.	16ff\	16ccc\	16E\	-i	16d\	-i	8a\	Je-	16dd\	-i	.	.
.	.	16ff\JJ	16ccc\JJ	16D\	Je-	16d\	Je-	.	.	16cc\	Je-	.	.
!	!	!	!	!LO:TX:a:t=P:problem:chorągiewka ósemki z lewej strony	!	!	!	!	!	!	!	!	!
8G\	5 4	16dd\LL	16ccc\LL	8G\	-ru-	8.d\	-ru-	8.g\	-ru-	8.cc\	-ru-	.	.
.	.	16dd\	16ccc\	.	.	.	.	.	.	.	.	.	.
8GG/J	X 3	16gg\	16bb\	8GG/	-sa-	.	.	.	.	.	.	.	.
.	.	16gg\JJ	16bb\JJ	.	.	16d\	-ſa-	16g\	-sa-	16b\	-sa-	.	.
8C\L	.	8ee\L	8ccc\L	4C/	-lem	4e\	-lem	4g\	-lem	4cc\	-lem	.	.
8E\	X 6	8cc\	8gg\	.	.	.	.	.	.	.	.	.	.
8F\	X 6	8ff\	8aa\	4r	.	4r	.	4r	.	4r	.	.	.
8G\J	.	8b\J	8dd\J	.	.	.	.	.	.	.	.	.	.
!	!	!	!	!	!	!	!	!LO:LB:g=original	!	!	!	!	!
!LO:LB:g=original	!	!	!	!	!	!	!	!	!	!	!	!	!
=11	=11	=11	=11	=11	=11	=11	=11	=11	=11	=11	=11	=11	=11
!	!	!LO:TX:a:t=P:problem:chorągiewka 8 z lewej strony	!LO:TX:a:t=P:problem:chorągiewka 8 z lewej strony	!	!	!	!	!	!	!LO:TX:a:t=I	!	!	!
.	X 6	.	.	.	.	.	.	.	.	.	.	.	.
4C\	X 6-	8cc\	8ee\	16c\LL	Glo-	0r	.	2r	.	1r	.	1ryy	1ryy
.	.	.	.	16B-X\	.	.	.	.	.	.	.	.	.
.	.	8r	8r	16c\	.	.	.	.	.	.	.	.	.
.	.	.	.	16d\JJ	.	.	.	.	.	.	.	.	.
!	!	!	!	!LO:LB:g=original	!	!	!	!	!	!	!	!	!
4E\	.	4r	4r	(>16c\LL	-ri-	.	.	.	.	.	.	.	.
.	.	.	.	16d\)	.	.	.	.	.	.	.	.	.
.	.	.	.	(>16c\	-a	.	.	.	.	.	.	.	.
.	.	.	.	16B-\JJ)	.	.	.	.	.	.	.	.	.
4F\	X 6	2r	2r	4.A\	pa-	.	.	16f\LL	Glo-	.	.	.	.
.	.	.	.	.	.	.	.	16e\	.	.	.	.	.
.	.	.	.	.	.	.	.	16f\	.	.	.	.	.
.	.	.	.	.	.	.	.	16g\JJ	.	.	.	.	.
4A\	X 5-	.	.	.	.	.	.	16f\LL	.	.	.	.	.
.	.	.	.	.	.	.	.	16g\JJ	.	.	.	.	.
.	.	.	.	8A\	-tri	.	.	16f\	-ri-	.	.	.	.
.	.	.	.	.	.	.	.	16e-X\	-a,	.	.	.	.
=12	=12	=12	=12	=12	=12	=12	=12	=12	=12	=12	=12	=12	=12
!	!	!LO:TX:a:t=I	!LO:TX:a:t=I	!	!	!	!	!	!	!	!	!	!
4.B-X\	.	1r	1r	16B-X\LL	glo-	.	.	8.d\	fi-	(>16dd\LL	glo-	1ryy	1ryy
.	.	.	.	16A\	.	.	.	.	.	16cc\JJ)	.	.	.
.	.	.	.	16B-\	-ri-	.	.	.	.	16dd\	-ri-	.	.
.	.	.	.	16c\JJ	-a	.	.	16d\	-li-	16ee-X\	-a'	.	.
.	.	.	.	16B-X\LL	et	.	.	8d\	-o	16dd\LL	et	.	.
.	.	.	.	16c\	.	.	.	.	.	16ee-X\JJ	.	.	.
8A\	.	.	.	16B-\	spi-	.	.	8e-X\	et	(>16dd\LL	spi-	.	.
.	.	.	.	16A\JJ	.	.	.	.	.	16cc\JJ)	.	.	.
8G\L	X 6|	.	.	8G\	-ri-	.	.	16a\	spi-	8b-X\	-ri-	.	.
.	.	.	.	.	.	.	.	16f\	-ri-	.	.	.	.
8F\J	.	.	.	16F\	-tu-	.	.	16f\	-tu-	16a\	-tu-	.	.
.	X 4	.	.	16F\	-i	.	.	16f\	-i	16a\	-i	.	.
4C\	5 3	.	.	4C/	San-	.	.	(>8f\L	San-	4g/	San-	.	.
.	.	.	.	.	.	.	.	8e-\J)	.	.	.	.	.
!	!	!	!LO:PB:g=original	!	!	!LO:LB:g=original	!	!	!	!	!	!	!
=13	=13	=13	=13	=13	=13	=13	=13	=13	=13	=13	=13	=13	=13
!	!	!	!	!	!	!	!	!LO:SIC:t=lub 8f	!	!	!	!	!
8F\L	.	8r	8r	8F\	-cto	8r	.	8e\	-cto,	8a\	-cto	1ryy	1ryy
16C\L	.	16cc\LL	16ee\LL	16C/	Si-	16e\	Si-	16g\	Si-	16cc\	Si-	.	.
16D\JJ	X 6	16b\JJ	16ff\JJ	16D/	-cut	16d\	-cut	16f\	-cut	16bn\	-cut	.	.
!	!	!	!	!	!	!	!	!	!	!LO:LB:g=original	!	!	!
8E\L	X 6	8cc\L	8gg\L	8E\	e-	8c\	e-	8g\	e-	8cc\	e-	.	.
8C\J	.	8ee\J	8gg\J	8C/	-rat	8c\	-rat'	8g\	-rat	8ee\	-rat'	.	.
!	!	!LO:LB:g=original	!	!	!	!	!	!LO:LB:g=original	!	!	!	!	!
8G\L	5 3	16dd\LL	16gg\LL	8G\	in	8B\	in	8g\	in	8dd\	in	.	.
.	.	16dd\	16ff\	.	.	.	.	.	.	.	.	.	.
8G\J	5 4	16cc\	16ee\	8c\	prin-	8c\	prin-	8e\	prin-	8ee\	prin-	.	.
.	.	16dd\JJ	16ff\JJ	.	.	.	.	.	.	.	.	.	.
16G\LL	.	16dd\LL	16gg\LL	16G\	-ci-	16B\	-ci-	16g\	-ci-	16dd\	-ci-	.	.
16G\	.	16dd\	16gg\	16G\	-pi-	16d\	-pi-	16g\	-pi-	16dd\	-pi-	.	.
!	!	!	!	!LO:LB:g=original	!	!	!	!	!	!	!	!	!
16A\	X 6	16cc\	16ff\	16A\	-o	16f\	-o	16f\	-o	16cc\	-o	.	.
16B\JJ	X 6	16dd\JJ	16gg\JJ	16B\	et	16d\	et	16g\	et	16dd\	et	.	.
=14	=14	=14	=14	=14	=14	=14	=14	=14	=14	=14	=14	=14	=14
!	!	!LO:TX:a:t=P:problem:mixed beam	!	!	!	!	!	!	!	!	!	!	!
4c\	.	8ee\L	8gg\L	8c\	n(un)c	8c\	n(un)c	8g\	n(un)c	8ee\	n(un)c	1ryy	1ryy
.	.	8e/	8cc\J	8r	.	8r	.	8e\	et	8cc\	et	.	.
8r	.	8d/	8b\L	8r	.	8r	.	8d\	Sem-	8b\	n(un)c	.	.
8G\	.	8dd\J	8gg\J	8G\	et	8B\	et	8g\	-per	8dd\	et	.	.
8c\L	.	16ee\LL	16gg\LL	8c\	Sem-	8c\	Sem-	8g\	Sem-	8ee\	Sem-	.	.
.	.	16ee\	16gg\	.	.	.	.	.	.	.	.	.	.
8c\	.	16ee\	16gg\	8c\	-per	8c\	-per	8g\	-per	8ee\	-per,	.	.
.	.	16ee\JJ	16gg\JJ	.	.	.	.	.	.	.	.	.	.
8B\	X 6	16dd\LL	16gg\LL	8B\	et	8d\	et	8g\	et	8dd\	et	.	.
.	.	16dd\	16gg\	.	.	.	.	.	.	.	.	.	.
8B\J	.	16dd\	16gg\	8B\	in	8d\	in	8b\	in	8gg\	in	.	.
.	.	16dd\JJ	16gg\JJ	.	.	.	.	.	.	.	.	.	.
=15	=15	=15	=15	=15	=15	=15	=15	=15	=15	=15	=15	=15	=15
!	!	!	!	!	!LO:SIC:s=Sae-	!	!	!	!	!	!	!	!
!	!	!	!	!	!	!	!LO:SIC:s=Sae-	!	!LO:SIC:s=Sae-	!	!LO:SIC:s=Sae-	!	!
8c\L	.	16ee\LL	16gg\LL	8c\	Se-	8c\	Se-	8g\	Se-	8ee\	Se-	1ryy	1ryy
.	.	16ee\	16gg\	.	.	.	.	.	.	.	.	.	.
8G\	.	16dd\	16gg\	16G\	-cu-	16B\	-cu-	16g\	-cu-	16dd\	-cu-	.	.
.	.	16ee\JJ	16gg\JJ	16G\	-la	16c\	-la	16g\	-la	16ee\	-la	.	.
!	!	!	!	!	!LO:SIC:s=Sae-	!	!	!	!	!	!	!	!
!	!	!	!	!	!	!	!LO:SIC:s=Sae-	!	!LO:SIC:s=Sae-	!	!LO:SIC:s=Sae-	!	!
!	!	!	!	!	!	!LO:LB:g=original	!	!	!	!	!	!	!
8A\	.	16cc\LL	16ee\LL	8A\	Se-	8A/	Se-	8e\	Se-	8cc\	Se-	.	.
.	.	16cc\	16ee\	.	.	.	.	.	.	.	.	.	.
!	!	!	!	!	!	!	!	!	!	!LO:LB:g=original	!	!	!
8E\J	X 6	16ee\	16gg\	8E\	-cu-	8G/	-cu-	8g\	-cu-	8cc\	-cu-	.	.
.	.	16ee\JJ	16gg\JJ	.	.	.	.	.	.	.	.	.	.
8F\L	.	16cc\LL	16aa\LL	8F\	-lo-	8A/	-lo-	8f\	-lo-	8cc\	-lo-	.	.
.	.	16cc\	16aa\	.	.	.	.	.	.	.	.	.	.
8E\	X 6	16ee\	16gg\	8E\	-rum	8c\	-rum	8g\	-rum,	8ee\	-rum,	.	.
.	.	16ee\JJ	16gg\JJ	.	.	.	.	.	.	.	.	.	.
!	!	!	!	!	!	!	!	!LO:LB:g=original	!	!	!	!	!
8F\	6 5	16dd\LL	16aa\LL	(>8F\L	a-	4d\	a-	8a\L	a-	8dd\L	a-	.	.
.	.	16dd\	16gg\	.	.	.	.	.	.	.	.	.	.
8G\J	.	16gg\	16gg\	8G\J)	.	.	.	8g\J	.	16ee\L	.	.	.
.	.	16gg\JJ	16gg\JJ	.	.	.	.	.	.	16dd\JJ	.	.	.
=16	=16	=16	=16	=16	=16	=16	=16	=16	=16	=16	=16	=16	=16
4C/	.	16ee\LL	16gg\LL	4C/	-men	4e\	-men	8g\	-men,	8cc\	-men,	1ryy	1ryy
.	.	16gg\	16ccc\	.	.	.	.	.	.	.	.	.	.
.	.	16gg\	16ccc\	.	.	.	.	(>16g\LL	a-	16ee\LL	a-	.	.
.	.	16gg\JJ	16ccc\JJ	.	.	.	.	16f\JJ)	.	16dd\JJ	.	.	.
4GG/	6 4	8gg\L	8ccc\L	4GG/	a-	4G/	a-	(>8e\L	.	(>8cc\L	.	.	.
.	5 3	8gg\J	8bb\J	.	.	.	.	8d\J)	.	8b\J)	.	.	.
!	!	!	!LO:LB:g=original	!	!	!	!	!	!	!	!	!	!
4C/	.	4gg\	4ccc\	4C/	-men	4G/	-men	4e\	-men	4cc\	-men	.	.
4r	.	4r	4r	4r	.	4r	.	4r	.	4r	.	.	.
==	==	==	==	==	==	==	==	==	==	==	==	==	==
*-	*-	*-	*-	*-	*-	*-	*-	*-	*-	*-	*-	*-	*-
!!!system-decoration: s1,s2,s3,s4,s5,s6,s7,s8,s9
!!!RDF**kern: > = above
!!!RDF**kern: < = below
!!!EED: Mateusz Mrugas
!!!EST: 2020-11-10
!!!ENC: Andrzej Kubiczek
!!!END: 2020-05-07
